X:18
T:Dornoch Links #2 
C:Joe Buchanan's Scottish Tome - Page 053.1
I:053 1
R:Barndance
Z:Carl Allison
L:1/8
M:2/4
K:A
(af) | "A" eA "E" cB/c/ | "A" eA "E" Aa/f/ | "A" eA cB/c/ | "B7" fB "E7" Bc/d/ |
"A" e/f/e/d/ "E" cB/A/ | "A" ce "F#m" a>c | "B7" df "E7" Be/d/ | "A" cA A :|
e | "A" a2 "E" ef/g/ | "A" ae/d/ "F#m" cB/A/ | "A" a2 "F#m" e/f/e/c/ | "B7" dB "E7" B>e
"A" a2 "E" ef/g/ | "A" ae/d/ "F#m" cB/A/ | "B7" df "E7" Be/d/ | "A" cA A :|

